X: 1
T: Martin O'Connor's
M: 2/4
L: 1/8
R: polka
K: Dmaj
|: D/E/ |
FE ED/E/ | FD D>E | FE DA | dB BA |
FE E2 | FD D2 | FD dA | B2- B :|
|: A |
Fd- d>e | fe ef/e/ | de/d/ cA | dB BA |
Fd d/c/d/e/ | fe e2 | d2 c/B/A | B2 B :|
